X: 8
T: No_103_Song_During_Which_Fourth_Warrior_Dances.krn
N: Derived from No_103_Song_During_Which_Fourth_Warrior_Dances.krn
%%abc-version 2.0
%%abcx-abcm2ps-target-version 5.9.1 (29 Sep 2008)
%%abc-creator hum2abc beta
%%abcx-conversion-date 2019/03/15 08:35:44
%%humdrum-veritas 97989822
%%humdrum-veritas-data 1102633918
%%linebreak <none>
%%barnumbers 0
L: 1/8
M: 2/4
K: A clef=bass
[K:clef=bass][M:2/4]z2z B, | 
B,B, C/C/B, ||  
[M:3/4]A,A,A,2E,/ z/ B, ||  
[M:2/4]B,B, B,B, ]|:  
A,A, A,A, ||  
[M:5/8]A,A,A,A,F, ||  
[M:2/4]E,E, E,C, ||  
[M:3/4]A,,A,,A,,2z E, ||  
[M:2/4]E,D, B,,B,, | 
A,,A,, A,,G,, | 
A,,4 | 
A,, z z B, [I:setbarnb 13]:|]  
A,,2z2 |]  



